X:1
T:Get That Boat
M:4/4
L:1/4
K:C
 C c G A| E/2E/2 c/2G/2 A/2 G3/2| E c G A/2G/2| E D C2| C c/2A/2 G A|\
 E c A/2 G3/2| E c G A/2G/2| E D C2| A A/2G/2 A A/2G/2| A/2A/2 d/2d/2 c2|\
 A A/2G/2 A G| A/2A/2 d/2B/2 c2| C/2C/2 c/2A/2 G A| E c A/2 G3/2| C c G A/2G/2|\
 E D C2|
